ix/repeat-circle_outline.svg

<svg viewBox="0 0 24 24" fill="none" xmlns="http://www.w3.org/2000/svg" height="1em" width="1em">
  <path d="M16.5 12.4701C16.09 12.4701 15.75 12.1301 15.75 11.7201V9.95013C15.75 9.48013 15.37 9.1001 14.9 9.1001H7.5C7.09 9.1001 6.75 8.7601 6.75 8.3501C6.75 7.9401 7.09 7.6001 7.5 7.6001H14.9C16.2 7.6001 17.25 8.66013 17.25 9.95013V11.7201C17.25 12.1301 16.91 12.4701 16.5 12.4701Z" fill="#292D32"/>
  <path d="M9.18945 10.7799C8.99945 10.7799 8.80946 10.7098 8.65946 10.5598L6.96945 8.86984C6.67945 8.57984 6.67945 8.09985 6.96945 7.80985L8.65946 6.11984C8.94946 5.82984 9.42945 5.82984 9.71945 6.11984C10.0095 6.40984 10.0095 6.88984 9.71945 7.17984L8.55945 8.33988L9.71945 9.49985C10.0095 9.78985 10.0095 10.2698 9.71945 10.5598C9.56945 10.7098 9.37945 10.7799 9.18945 10.7799Z" fill="#292D32"/>
  <path d="M16.5 16.41H9.10001C7.80001 16.41 6.75 15.3501 6.75 14.0601V12.29C6.75 11.88 7.09 11.54 7.5 11.54C7.91 11.54 8.25 11.88 8.25 12.29V14.0601C8.25 14.5301 8.63001 14.91 9.10001 14.91H16.5C16.91 14.91 17.25 15.25 17.25 15.66C17.25 16.07 16.91 16.41 16.5 16.41Z" fill="#292D32"/>
  <path d="M14.81 18.0899C14.62 18.0899 14.43 18.0199 14.28 17.8699C13.99 17.5799 13.99 17.0999 14.28 16.8099L15.44 15.6499L14.28 14.4899C13.99 14.1999 13.99 13.7199 14.28 13.4299C14.57 13.1399 15.05 13.1399 15.34 13.4299L17.03 15.1199C17.32 15.4099 17.32 15.8899 17.03 16.1799L15.34 17.8699C15.2 18.0199 15 18.0899 14.81 18.0899Z" fill="#292D32"/>
  <path d="M12 22.75C6.07 22.75 1.25 17.93 1.25 12C1.25 6.07 6.07 1.25 12 1.25C17.93 1.25 22.75 6.07 22.75 12C22.75 17.93 17.93 22.75 12 22.75ZM12 2.75C6.9 2.75 2.75 6.9 2.75 12C2.75 17.1 6.9 21.25 12 21.25C17.1 21.25 21.25 17.1 21.25 12C21.25 6.9 17.1 2.75 12 2.75Z" fill="#292D32"/>
</svg>

<svg viewBox="0 0 24 24" fill="none" xmlns="http://www.w3.org/2000/svg" height="1em" width="1em">
  <path d="M16.5 12.47c-.41 0-.75-.34-.75-.75V9.95a.85.85 0 0 0-.85-.85H7.5c-.41 0-.75-.34-.75-.75s.34-.75.75-.75h7.4c1.3 0 2.35 1.06 2.35 2.35v1.77c0 .41-.34.75-.75.75Z" fill="#292D32"/>
  <path d="M9.19 10.78c-.19 0-.38-.07-.53-.22L6.97 8.87a.754.754 0 0 1 0-1.06l1.69-1.69c.29-.29.77-.29 1.06 0 .29.29.29.77 0 1.06L8.56 8.34 9.72 9.5c.29.29.29.77 0 1.06-.15.15-.34.22-.53.22Zm7.31 5.63H9.1c-1.3 0-2.35-1.06-2.35-2.35v-1.77c0-.41.34-.75.75-.75s.75.34.75.75v1.77c0 .47.38.85.85.85h7.4c.41 0 .75.34.75.75s-.34.75-.75.75Z" fill="#292D32"/>
  <path d="M14.81 18.09c-.19 0-.38-.07-.53-.22a.754.754 0 0 1 0-1.06l1.16-1.16-1.16-1.16a.754.754 0 0 1 0-1.06c.29-.29.77-.29 1.06 0l1.69 1.69c.29.29.29.77 0 1.06l-1.69 1.69c-.14.15-.34.22-.53.22Z" fill="#292D32"/>
  <path d="M12 22.75C6.07 22.75 1.25 17.93 1.25 12S6.07 1.25 12 1.25 22.75 6.07 22.75 12 17.93 22.75 12 22.75Zm0-20C6.9 2.75 2.75 6.9 2.75 12S6.9 21.25 12 21.25s9.25-4.15 9.25-9.25S17.1 2.75 12 2.75Z" fill="#292D32"/>
</svg>
